P3
# Deterministic 8x8 sRGB checker used by tests and examples.
8 8
255
245 85 73   245 85 73   255 190 70  255 190 70  42 170 190  42 170 190  68 84 180   68 84 180
245 85 73   245 85 73   255 190 70  255 190 70  42 170 190  42 170 190  68 84 180   68 84 180
255 190 70  255 190 70  42 170 190  42 170 190  68 84 180   68 84 180   245 85 73  245 85 73
255 190 70  255 190 70  42 170 190  42 170 190  68 84 180   68 84 180   245 85 73  245 85 73
42 170 190  42 170 190  68 84 180   68 84 180   245 85 73  245 85 73  255 190 70  255 190 70
42 170 190  42 170 190  68 84 180   68 84 180   245 85 73  245 85 73  255 190 70  255 190 70
68 84 180   68 84 180   245 85 73  245 85 73  255 190 70  255 190 70  42 170 190  42 170 190
68 84 180   68 84 180   245 85 73  245 85 73  255 190 70  255 190 70  42 170 190  42 170 190
